;FLAVOR:Marlin
;TIME:2330
;Filament used: 2.12927m
;Layer height: 0.2
;MINX:108.354
;MINY:88.354
;MINZ:0.2
;MAXX:171.388
;MAXY:121.646
;MAXZ:12.8
;TARGET_MACHINE.NAME:Prusa i3 Mk3/Mk3s
;Generated with Cura_SteamEngine 5.9.0
M82 ;absolute extrusion mode
G21 ; set units to millimeters
G90 ; use absolute positioning
M82 ; absolute extrusion mode
M104 S200 ; set extruder temp
M140 S60 ; set bed temp
M190 S60 ; wait for bed temp
M109 S200 ; wait for extruder temp
G28 W ; home all without mesh bed level
G80 ; mesh bed leveling
G92 E0.0 ; reset extruder distance position
G1 Y-3.0 F1000.0 ; go outside print area
G1 X60.0 E9.0 F1000.0 ; intro line
G1 X100.0 E21.5 F1000.0 ; intro line
G92 E0.0 ; reset extruder distance position
G92 E0
G92 E0
G1 F2100 E-0.8
;LAYER_COUNT:64
;LAYER:0
M107
G0 F3600 X127.254 Y121.463 Z0.2
;TYPE:SKIRT
G1 F2100 E0
G1 F1800 X125.306 Y121.644 E0.06507
G1 X124.711 Y121.646 E0.08486
G1 X123.983 Y121.585 E0.10916
G1 X122.733 Y121.461 E0.15094
G1 X121.966 Y121.37 E0.17663
G1 X121.424 Y121.258 E0.19503
G1 X119.566 Y120.704 E0.25952
G1 X118.877 Y120.483 E0.28359
G1 X118.32 Y120.249 E0.30368
G1 X116.7 Y119.393 E0.36462
G1 X115.968 Y118.986 E0.39248
G1 X115.502 Y118.673 E0.41115
G1 X114.963 Y118.244 E0.43406
G1 X113.987 Y117.442 E0.47608
G1 X113.416 Y116.957 E0.501
G1 X113.018 Y116.558 E0.51974
G1 X112.531 Y115.983 E0.5448
G1 X111.325 Y114.494 E0.60853
G1 X110.992 Y113.997 E0.62843
G1 X110.628 Y113.339 E0.65344
G1 X110.076 Y112.305 E0.69243
G1 X109.721 Y111.617 E0.71818
G1 X109.513 Y111.115 E0.73625
G1 X109.275 Y110.369 E0.76229
G1 X108.733 Y108.54 E0.82574
G1 X108.616 Y107.949 E0.84578
G1 X108.537 Y107.254 E0.86904
G1 X108.356 Y105.306 E0.93411
G1 X108.354 Y104.711 E0.9539
G1 X108.415 Y103.983 E0.9782
G1 X108.539 Y102.733 E1.01998
G1 X108.63 Y101.966 E1.04567
G1 X108.751 Y101.39 E1.06525
G1 X109.296 Y99.567 E1.12853
G1 X109.516 Y98.88 E1.15252
G1 X109.75 Y98.323 E1.17262
G1 X110.63 Y96.659 E1.23523
G1 X111.016 Y95.965 E1.26164
G1 X111.33 Y95.498 E1.28035
G1 X111.755 Y94.963 E1.30308
G1 X112.556 Y93.988 E1.34505
G1 X113.04 Y93.417 E1.36995
G1 X113.414 Y93.043 E1.38754
G1 X114.017 Y92.531 E1.41385
G1 X115.506 Y91.325 E1.47758
G1 X115.973 Y91.01 E1.49631
G1 X116.687 Y90.614 E1.52347
G1 X118.36 Y89.733 E1.58636
G1 X118.911 Y89.505 E1.60619
G1 X120.765 Y88.933 E1.67072
G1 X121.493 Y88.725 E1.69591
G1 X122.044 Y88.617 E1.71458
G1 X122.746 Y88.537 E1.73808
G1 X124.696 Y88.356 E1.80322
G1 X125.292 Y88.354 E1.82304
G1 X126.017 Y88.415 E1.84724
G1 X127.251 Y88.537 E1.88848
G1 X128.558 Y88.685 E1.93223
G1 X130.217 Y88.896 E1.98785
G1 X132.967 Y89.165 E2.07976
G1 X135.666 Y89.354 E2.16974
G1 X138.386 Y89.467 E2.26029
G1 X141.118 Y89.503 E2.35116
G1 X143.855 Y89.461 E2.44221
G1 X146.573 Y89.343 E2.53269
G1 X149.289 Y89.149 E2.62326
G1 X151.766 Y88.905 E2.70604
G1 X152.821 Y88.788 E2.74135
G1 X154.027 Y88.668 E2.78166
G1 X154.737 Y88.611 E2.80535
G1 X155.333 Y88.616 E2.82517
G1 X157.18 Y88.788 E2.88687
G1 X157.94 Y88.875 E2.91231
G1 X158.497 Y88.987 E2.93121
G1 X159.208 Y89.192 E2.95582
G1 X160.995 Y89.747 E3.01806
G1 X161.544 Y89.972 E3.03779
G1 X162.182 Y90.301 E3.06167
G1 X163.853 Y91.207 E3.12489
G1 X164.322 Y91.517 E3.14358
G1 X164.916 Y91.989 E3.16882
G1 X165.884 Y92.784 E3.21048
G1 X166.426 Y93.247 E3.23419
G1 X166.84 Y93.67 E3.25388
G1 X168.012 Y95.086 E3.31501
G1 X168.485 Y95.683 E3.34035
G1 X168.813 Y96.183 E3.36023
G1 X169.697 Y97.818 E3.42205
G1 X170.037 Y98.479 E3.44678
G1 X170.251 Y98.997 E3.46542
G1 X170.475 Y99.697 E3.48986
G1 X171.012 Y101.504 E3.55256
G1 X171.129 Y102.084 E3.57224
G1 X171.211 Y102.794 E3.59601
G1 X171.332 Y104.027 E3.63722
G1 X171.388 Y104.698 E3.65962
G1 X171.388 Y105.297 E3.67954
G1 X171.327 Y106.014 E3.70347
G1 X171.131 Y107.9 E3.76654
G1 X171.023 Y108.457 E3.78541
G1 X170.808 Y109.206 E3.81133
G1 X170.252 Y110.997 E3.8737
G1 X170.026 Y111.546 E3.89345
G1 X169.699 Y112.181 E3.9172
G1 X168.795 Y113.848 E3.98028
G1 X168.466 Y114.344 E4.00007
G1 X168.008 Y114.919 E4.02452
G1 X167.216 Y115.884 E4.06604
G1 X166.753 Y116.426 E4.08975
G1 X166.331 Y116.84 E4.10941
G1 X164.924 Y118.004 E4.17015
G1 X164.317 Y118.485 E4.19591
G1 X163.817 Y118.813 E4.2158
G1 X162.18 Y119.699 E4.27771
G1 X161.545 Y120.026 E4.30146
G1 X161 Y120.252 E4.32109
G1 X160.303 Y120.475 E4.34543
G1 X158.496 Y121.012 E4.40813
G1 X157.916 Y121.129 E4.42781
G1 X157.206 Y121.211 E4.45158
G1 X155.973 Y121.332 E4.49278
G1 X155.266 Y121.389 E4.51638
G1 X154.67 Y121.384 E4.5362
G1 X152.785 Y121.209 E4.59916
G1 X151.872 Y121.106 E4.62972
G1 X149.159 Y120.837 E4.7204
G1 X146.439 Y120.646 E4.81109
G1 X143.722 Y120.533 E4.90154
G1 X140.984 Y120.495 E4.99261
G1 X138.251 Y120.535 E5.08352
G1 X135.531 Y120.652 E5.17407
G1 X132.807 Y120.846 E5.2649
G1 X130.097 Y121.117 E5.35549
G1 X128.152 Y121.364 E5.4207
G1 X127.254 Y121.463 E5.45075
G0 F3600 X128.108 Y120.966
G1 F1800 X127.217 Y121.065 E5.48056
G1 X125.304 Y121.244 E5.54447
G1 X124.744 Y121.247 E5.56309
G1 X124.022 Y121.187 E5.58719
G1 X122.78 Y121.064 E5.6287
G1 X122.047 Y120.978 E5.65325
G1 X121.505 Y120.866 E5.67166
G1 X119.687 Y120.323 E5.73476
G1 X119.031 Y120.114 E5.75766
G1 X118.507 Y119.895 E5.77655
G1 X116.894 Y119.043 E5.83722
G1 X116.19 Y118.653 E5.86399
G1 X115.751 Y118.36 E5.88155
G1 X115.217 Y117.935 E5.90425
G1 X114.245 Y117.137 E5.94607
G1 X113.698 Y116.674 E5.96991
G1 X113.323 Y116.3 E5.98753
G1 X112.842 Y115.731 E6.01231
G1 X111.657 Y114.27 E6.07487
G1 X111.342 Y113.803 E6.09361
G1 X110.981 Y113.15 E6.11843
G1 X110.431 Y112.121 E6.15723
G1 X110.091 Y111.464 E6.18184
G1 X109.883 Y110.962 E6.19991
G1 X109.659 Y110.255 E6.22458
G1 X109.117 Y108.426 E6.28803
G1 X109.013 Y107.904 E6.30573
G1 X108.935 Y107.217 E6.32873
G1 X108.756 Y105.304 E6.39263
G1 X108.753 Y104.744 E6.41126
G1 X108.813 Y104.022 E6.43535
G1 X108.936 Y102.78 E6.47686
G1 X109.022 Y102.047 E6.50141
G1 X109.134 Y101.505 E6.51982
G1 X109.677 Y99.688 E6.58289
G1 X109.885 Y99.034 E6.60572
G1 X110.104 Y98.51 E6.62461
G1 X110.98 Y96.853 E6.68695
G1 X111.349 Y96.187 E6.71227
G1 X111.643 Y95.747 E6.72987
G1 X112.064 Y95.217 E6.75238
G1 X112.861 Y94.246 E6.79417
G1 X113.323 Y93.7 E6.81796
G1 X113.697 Y93.326 E6.83555
G1 X114.269 Y92.842 E6.86047
G1 X115.73 Y91.657 E6.92304
G1 X116.197 Y91.342 E6.94177
G1 X116.874 Y90.968 E6.9675
G1 X118.513 Y90.103 E7.02914
G1 X119.064 Y89.875 E7.04897
G1 X120.875 Y89.317 E7.112
G1 X121.571 Y89.117 E7.13608
G1 X122.089 Y89.014 E7.15365
G1 X122.783 Y88.935 E7.17688
G1 X124.698 Y88.756 E7.24085
G1 X125.259 Y88.753 E7.25951
G1 X125.978 Y88.813 E7.28351
G1 X127.206 Y88.934 E7.32455
G1 X128.508 Y89.082 E7.36813
G1 X130.167 Y89.293 E7.42376
G1 X132.936 Y89.564 E7.51629
G1 X135.649 Y89.754 E7.60675
G1 X138.369 Y89.867 E7.69729
G1 X141.119 Y89.903 E7.78877
G1 X143.872 Y89.861 E7.88034
G1 X146.59 Y89.743 E7.97083
G1 X149.32 Y89.548 E8.06186
G1 X151.81 Y89.303 E8.14508
G1 X152.86 Y89.186 E8.18022
G1 X154.06 Y89.067 E8.22033
G1 X154.735 Y89.011 E8.24285
G1 X155.296 Y89.014 E8.26151
G1 X157.135 Y89.185 E8.32294
G1 X157.862 Y89.267 E8.34728
G1 X158.386 Y89.371 E8.36504
G1 X159.09 Y89.574 E8.38941
G1 X160.844 Y90.117 E8.45048
G1 X161.361 Y90.328 E8.46906
G1 X161.992 Y90.653 E8.49266
G1 X163.632 Y91.541 E8.55469
G1 X164.101 Y91.851 E8.57339
G1 X164.662 Y92.298 E8.59725
G1 X165.625 Y93.089 E8.6387
G1 X166.141 Y93.528 E8.66123
G1 X166.532 Y93.925 E8.67976
G1 X167.699 Y95.335 E8.74064
G1 X168.151 Y95.903 E8.76478
G1 X168.461 Y96.373 E8.78351
G1 X169.342 Y98.001 E8.84508
G1 X169.668 Y98.633 E8.86873
G1 X169.87 Y99.119 E8.88623
G1 X170.092 Y99.811 E8.91041
G1 X170.62 Y101.584 E8.97194
G1 X170.732 Y102.13 E8.99047
G1 X170.813 Y102.833 E9.01401
G1 X170.933 Y104.06 E9.05502
G1 X170.989 Y104.731 E9.07741
G1 X170.989 Y105.263 E9.0951
G1 X170.929 Y105.973 E9.1188
G1 X170.738 Y107.824 E9.1807
G1 X170.63 Y108.381 E9.19957
G1 X170.426 Y109.088 E9.22404
G1 X169.882 Y110.846 E9.28525
G1 X169.671 Y111.363 E9.30382
G1 X169.347 Y111.991 E9.32732
G1 X168.461 Y113.628 E9.38923
G1 X168.153 Y114.095 E9.40784
G1 X167.699 Y114.665 E9.43208
G1 X166.911 Y115.625 E9.47339
G1 X166.472 Y116.141 E9.49592
G1 X166.076 Y116.532 E9.51443
G1 X164.675 Y117.691 E9.5749
G1 X164.097 Y118.151 E9.59947
G1 X163.627 Y118.461 E9.6182
G1 X161.997 Y119.343 E9.67984
G1 X161.362 Y119.67 E9.7036
G1 X160.878 Y119.871 E9.72103
G1 X160.189 Y120.092 E9.74509
G1 X158.416 Y120.62 E9.80662
G1 X157.87 Y120.732 E9.82516
G1 X157.167 Y120.813 E9.8487
G1 X155.94 Y120.933 E9.8897
G1 X155.268 Y120.989 E9.91213
G1 X154.707 Y120.986 E9.93079
G1 X152.83 Y120.812 E9.99349
G1 X151.912 Y120.708 E10.02422
G1 X149.194 Y120.438 E10.11506
G1 X146.456 Y120.246 E10.20635
G1 X143.739 Y120.133 E10.2968
G1 X140.984 Y120.095 E10.38844
G1 X138.234 Y120.135 E10.47991
G1 X135.514 Y120.252 E10.57046
G1 X132.772 Y120.447 E10.66189
G1 X130.047 Y120.72 E10.75298
G1 X128.108 Y120.966 E10.81799
G1 F2100 E10.01799
;MESH:spiderpart.stl
G0 F3600 X127.574 Y118.481
G0 X127.467 Y117.394
G0 X125 Y117.154
G0 X125 Y117.465
;TYPE:WALL-INNER
G1 F2100 E10.81799
G1 F1800 X127.43 Y117.224 E10.89921
G1 X129.765 Y116.519 E10.98033
G1 X131.921 Y115.362 E11.06172
G1 X133.813 Y113.813 E11.14304
G1 X135.362 Y111.92 E11.2244
G1 X136.518 Y109.765 E11.30573
G1 X137.224 Y107.43 E11.38687
G1 X137.465 Y105 E11.46809
G1 X137.224 Y102.566 E11.54944
G1 X136.518 Y100.231 E11.63057
G1 X135.362 Y98.075 E11.71194
G1 X133.813 Y96.183 E11.79327
G1 X131.921 Y94.634 E11.8746
G1 X129.765 Y93.482 E11.9559
G1 X127.43 Y92.776 E12.03703
G1 X125 Y92.535 E12.11825
G1 X122.566 Y92.776 E12.1996
G1 X120.231 Y93.482 E12.28074
G1 X118.075 Y94.634 E12.36204
G1 X116.183 Y96.183 E12.44337
G1 X114.634 Y98.075 E12.5247
G1 X113.482 Y100.231 E12.606
G1 X112.776 Y102.566 E12.68714
G1 X112.535 Y105 E12.76849
G1 X112.776 Y107.43 E12.84971
G1 X113.482 Y109.765 E12.93084
G1 X114.634 Y111.921 E13.01214
G1 X116.183 Y113.813 E13.09347
G1 X118.075 Y115.362 E13.1748
G1 X120.231 Y116.519 E13.25618
G1 X122.566 Y117.224 E13.33731
G1 X125 Y117.465 E13.41866
G0 F3600 X125 Y117.154
G0 X128.943 Y109.844
G0 X128.848 Y109.545
G1 F1800 X128.251 Y109.716 E13.43931
G1 X121.834 Y109.723 E13.65274
G1 X121.263 Y109.607 E13.67212
G1 X120.699 Y109.22 E13.69487
G1 X120.451 Y108.849 E13.70972
G1 X120.28 Y108.255 E13.73027
G1 X120.273 Y101.833 E13.94387
G1 X120.401 Y101.223 E13.9646
G1 X120.783 Y100.691 E13.98639
G1 X121.309 Y100.376 E14.00678
G1 X121.741 Y100.28 E14.0215
G1 X128.231 Y100.272 E14.23735
G1 X128.683 Y100.376 E14.25278
G1 X129.214 Y100.687 E14.27325
G1 X129.56 Y101.169 E14.29298
G1 X129.724 Y101.714 E14.31191
G1 X129.724 Y108.41 E14.53462
G1 X129.433 Y109.055 E14.55816
G1 X129.005 Y109.453 E14.5776
G1 X128.848 Y109.545 E14.58365
G0 F3600 X128.723 Y109.163
;TYPE:WALL-OUTER
G1 F1800 X128.233 Y109.316 E14.60072
G1 X121.862 Y109.324 E14.81262
G1 X121.369 Y109.211 E14.82944
G1 X120.992 Y108.936 E14.84497
G1 X120.822 Y108.699 E14.85467
G1 X120.68 Y108.237 E14.87074
G1 X120.672 Y101.861 E15.08281
G1 X120.785 Y101.369 E15.0996
G1 X121.06 Y100.992 E15.11512
G1 X121.479 Y100.738 E15.13142
G1 X121.729 Y100.683 E15.13993
G1 X128.211 Y100.672 E15.35552
G1 X128.513 Y100.738 E15.3658
G1 X128.936 Y100.988 E15.38215
G1 X129.211 Y101.365 E15.39767
G1 X129.324 Y101.728 E15.41031
G1 X129.32 Y108.325 E15.62973
G1 X129.107 Y108.807 E15.64726
G1 X128.723 Y109.163 E15.66467
G0 F3600 X128.532 Y109.222
G0 X128.752 Y109.906
G0 X125 Y117.154
G0 X125 Y117.867
G1 F1800 X127.508 Y117.618 E15.7485
G1 X129.919 Y116.89 E15.83226
G1 X132.144 Y115.696 E15.91625
G1 X134.097 Y114.097 E16.0002
G1 X135.696 Y112.144 E16.08415
G1 X136.89 Y109.919 E16.16814
G1 X137.618 Y107.508 E16.25191
G1 X137.867 Y105 E16.33573
G1 X137.618 Y102.488 E16.41969
G1 X136.89 Y100.077 E16.50346
G1 X135.696 Y97.852 E16.58744
G1 X134.097 Y95.899 E16.67139
G1 X132.144 Y94.3 E16.75535
G1 X129.919 Y93.11 E16.83927
G1 X127.508 Y92.382 E16.92304
G1 X125 Y92.133 E17.00686
G1 X122.488 Y92.382 E17.09082
G1 X120.077 Y93.11 E17.17459
G1 X117.852 Y94.3 E17.25851
G1 X115.899 Y95.899 E17.34246
G1 X114.3 Y97.852 E17.42641
G1 X113.11 Y100.077 E17.51034
G1 X112.382 Y102.488 E17.5941
G1 X112.133 Y105 E17.67806
G1 X112.382 Y107.508 E17.76189
G1 X113.11 Y109.919 E17.84565
G1 X114.3 Y112.144 E17.92958
G1 X115.899 Y114.097 E18.01353
G1 X117.852 Y115.696 E18.09748
G1 X120.077 Y116.89 E18.18147
G1 X122.488 Y117.618 E18.26523
G1 X125 Y117.867 E18.34919
G0 F3600 X125.199 Y117.848
G0 X125.131 Y117.141
G0 X128.979 Y109.903
;TYPE:SKIN
G1 F1800 X129.243 Y109.747 E18.35939
G1 X129.748 Y109.27 E18.38249
G1 X130.1 Y108.49 E18.41096
G1 X130.104 Y101.676 E18.63759
G1 X129.891 Y100.977 E18.6619
G1 X129.474 Y100.402 E18.68552
G1 X128.841 Y100.03 E18.70994
G1 X128.251 Y99.892 E18.73009
G1 X121.691 Y99.904 E18.94828
G1 X121.143 Y100.034 E18.96701
G1 X120.518 Y100.402 E18.99114
G1 X120.05 Y101.059 E19.01797
G1 X119.892 Y101.775 E19.04235
G1 X119.9 Y108.269 E19.25834
G1 X120.099 Y109.006 E19.28373
G1 X120.513 Y109.551 E19.3065
G1 X121.075 Y109.952 E19.32946
G1 X121.809 Y110.1 E19.35436
G1 X128.265 Y110.096 E19.56909
G1 X128.979 Y109.903 E19.59369
G0 F3600 X124.999 Y117.083
G1 F1800 X122.636 Y116.846 E19.67268
G1 X120.377 Y116.166 E19.75115
G1 X118.288 Y115.044 E19.83001
G1 X116.451 Y113.541 E19.90896
G1 X114.948 Y111.704 E19.9879
G1 X113.83 Y109.615 E20.06671
G1 X113.15 Y107.357 E20.14514
G1 X112.917 Y104.999 E20.22395
G1 X113.15 Y102.635 E20.30296
G1 X113.83 Y100.377 E20.38139
G1 X114.948 Y98.288 E20.46019
G1 X116.451 Y96.451 E20.53914
G1 X118.288 Y94.948 E20.61808
G1 X120.377 Y93.83 E20.69689
G1 X122.636 Y93.15 E20.77535
G1 X124.999 Y92.917 E20.85433
G1 X127.356 Y93.15 E20.9331
G1 X129.615 Y93.83 E21.01157
G1 X131.704 Y94.948 E21.09037
G1 X133.541 Y96.451 E21.16932
G1 X135.044 Y98.288 E21.24826
G1 X136.166 Y100.377 E21.32713
G1 X136.846 Y102.636 E21.40559
G1 X137.082 Y104.999 E21.48458
G1 X136.846 Y107.356 E21.56336
G1 X136.166 Y109.615 E21.64183
G1 X135.044 Y111.704 E21.72069
G1 X133.541 Y113.541 E21.79964
G1 X131.704 Y115.044 E21.87858
G1 X129.615 Y116.166 E21.95745
G1 X127.356 Y116.846 E22.03591
G1 X124.999 Y117.083 E22.1147
G0 F3600 X117.694 Y114.3
G1 F1800 X115.692 Y112.298 E22.20887
G1 X115.622 Y112.228
G0 F3600 X114.611 Y110.652
G1 F1800 X119.343 Y115.383 E22.43143
G1 X119.413 Y115.453
G0 F3600 X120.527 Y116.002
G1 F1800 X113.995 Y109.469 E22.7387
G1 X113.925 Y109.399
G0 F3600 X113.751 Y108.66
G1 F1800 X121.337 Y116.246 E23.09552
G1 X121.407 Y116.316
G0 F3600 X122.146 Y116.489
G1 F1800 X113.507 Y107.85 E23.50187
G0 F3600 X113.325 Y107.103
G1 F1800 X122.893 Y116.67 E23.9519
G0 F3600 X123.522 Y116.733
G1 F1800 X113.264 Y106.475 E24.4344
G0 F3600 X113.201 Y105.848
G1 F1800 X124.15 Y116.796 E24.94939
G0 F3600 X124.779 Y116.859
G1 F1800 X113.139 Y105.22 E25.49687
G0 F3600 X113.151 Y104.665
G1 F1800 X125.333 Y116.848 E26.0699
G0 F3600 X125.847 Y116.796
G1 F1800 X113.201 Y104.15 E26.66473
G0 F3600 X113.252 Y103.635
G1 F1800 X126.361 Y116.745 E27.28136
G0 F3600 X126.875 Y116.693
G1 F1800 X113.303 Y103.12 E27.91977
G0 F3600 X113.364 Y102.616
G1 F1800 X120.132 Y109.384 E28.23811
G0 F3600 X120.631 Y109.883
G1 F1800 X127.378 Y116.63 E28.55547
G0 F3600 X127.813 Y116.499
G1 F1800 X121.571 Y110.257 E28.84908
G0 F3600 X122.18 Y110.3
G1 F1800 X128.247 Y116.368 E29.13447
G0 F3600 X128.682 Y116.237
G1 F1800 X122.745 Y110.3 E29.41373
G0 F3600 X123.31 Y110.299
G1 F1800 X129.117 Y116.106 E29.68687
G0 F3600 X129.549 Y115.973
G1 F1800 X123.876 Y110.299 E29.95374
G0 F3600 X124.441 Y110.299
G1 F1800 X129.917 Y115.775 E30.21131
G0 F3600 X130.286 Y115.578
G1 F1800 X125.007 Y110.299 E30.45962
G0 F3600 X125.572 Y110.298
G1 F1800 X130.654 Y115.38 E30.69866
G0 F3600 X131.022 Y115.183
G1 F1800 X126.137 Y110.298 E30.92844
G0 F3600 X126.702 Y110.297
G1 F1800 X131.39 Y114.985 E31.14895
G0 F3600 X131.733 Y114.762
G1 F1800 X127.267 Y110.297 E31.35899
G0 F3600 X127.833 Y110.297
G1 F1800 X132.044 Y114.507 E31.55704
G0 F3600 X132.355 Y114.253
G1 F1800 X128.38 Y110.278 E31.74401
G0 F3600 X128.822 Y110.155
G1 F1800 X132.666 Y113.998 E31.9248
G0 F3600 X132.977 Y113.744
G1 F1800 X129.222 Y109.989 E32.10142
G0 F3600 X129.541 Y109.742
G1 F1800 X133.288 Y113.489 E32.27767
